smiling-axolotl/src/assets/partners/CreatingMadness.svg

<svg width="120" height="132" viewBox="0 0 120 132" fill="none" xmlns="http://www.w3.org/2000/svg">
<g clip-path="url(#clip0_711_3)">
<path d="M46.48 25.5406C46.8 25.8606 48.72 25.2406 49.39 25.2306C58.47 25.1906 74.02 33.1806 81.22 38.6906C99.84 52.3406 103.37 71.8006 104.23 93.7306C104.33 94.3906 105.44 98.1106 105.21 98.3806C102.01 99.4106 99.35 101.561 96.49 103.261C92.13 105.861 87.96 108.501 83.72 111.271C56.63 128.981 20.52 106.751 25.69 74.3606C27.85 60.8306 38.75 47.3506 52.84 45.5106C52.94 45.9706 52.7 45.8006 52.5 45.9306C43.51 51.8506 35.57 59.4306 33.18 70.3706C32.07 75.4206 32.17 83.6606 33.62 88.6306C39.32 108.121 62.48 116.351 79.24 104.611C83.31 101.761 90.29 94.2506 91.64 89.4706C92.61 86.0306 92.89 82.0106 93.21 78.4506L91.81 84.5706C86.14 102.721 61.53 114.301 46.07 100.331C37.11 92.5506 32.15 79.4106 38.5 68.4306C42.23 61.9806 48.86 60.3506 55.96 60.8806C61.19 61.2706 67.38 65.6806 66.85 71.4406C66.8 71.9706 66.03 74.2906 65.58 74.4006C65.07 74.5206 65.1 72.8006 64.98 72.3006C63.58 66.6806 55.2 68.5206 53.28 73.2506C50.22 80.1406 57.31 84.2006 63.21 84.5306C66.31 84.2706 71.68 82.0306 73.29 79.2406C76.8 73.1506 76.99 63.1906 74.48 56.7106C72.39 51.3206 68.72 47.7506 63.47 45.4206C63.63 45.2506 64 45.1906 64.23 45.1706C66.54 44.9406 69.25 45.4906 71.54 45.8006C71.72 45.8306 72.12 45.9906 72.08 45.6806C62.1 39.7206 51.89 40.2206 41.24 43.9806C34.15 46.3206 28.96 50.1306 23.5 55.1306C17.08 61.0206 12.36 68.0406 6.42996 74.2206C5.68996 74.9906 5.18996 76.2206 3.98996 76.5906C4.29996 75.1806 4.12996 75.7306 3.55996 75.0806C3.02996 74.4806 2.90996 73.1006 2.80996 72.2806C1.21996 59.2106 1.89996 46.7106 6.60996 34.3606C10.58 23.9406 18.36 12.0206 26.89 4.80064C27.73 4.09064 33.22 -0.0993609 33.9 0.310639C37.37 9.06064 42.1 17.2106 46.44 25.5306L46.48 25.5406Z" fill="currentColor"/>
<path d="M118.25 10.7206C117.9 14.3306 115.33 19.1006 114.19 22.8006C112.06 29.2506 110.27 35.8106 108.12 42.2506C108.1 42.8406 109.93 45.1606 110.38 45.8806C116.08 55.1306 120.3 68.6706 118.91 79.5506C118.47 82.9906 117.43 86.3406 117.07 89.7906C116.41 89.9606 116.99 89.1606 116.57 89.1206C116.11 90.0806 115.88 91.1706 115.43 92.1306C115.32 92.3706 115.53 92.5906 115.05 92.5006C114.82 89.0206 115.59 85.5906 115.39 82.1106C114.74 71.0206 106.43 58.5306 99.5101 50.1806C95.3301 45.1406 90.4901 40.0106 84.8701 36.6106C79.2501 33.2106 73.4901 30.7206 67.4901 27.9706C67.3201 27.8906 67.0901 27.8606 67.0801 27.6306C69.5601 26.5606 72.2601 26.1106 74.8201 25.3106C82.3101 22.9706 89.1901 18.5006 96.6101 15.6706C103.55 13.0206 110.91 11.5706 118.28 10.7306L118.25 10.7206Z" fill="currentColor"/>
<path d="M76.3402 120.701C76.4202 121.181 76.2402 120.981 75.9502 121.061C67.0502 123.481 58.6102 126.331 51.1702 131.851C50.2902 129.701 48.7402 128.121 47.1102 126.531C33.5202 112.361 19.2602 103.221 0.130234 98.1507L-0.00976562 97.6707C8.91023 83.5107 17.0102 68.0107 29.5302 56.6707C21.3502 71.5707 17.7702 90.2307 29.1202 104.641C36.1702 113.681 54.2002 120.551 65.4202 121.051C69.0802 121.211 72.6802 120.691 76.3202 120.701H76.3402Z" fill="currentColor"/>
</g>
<defs>
<clipPath id="clip0_711_3">
<rect width="119.17" height="131.56" fill="white" transform="translate(0 0.290649)"/>
</clipPath>
</defs>
</svg>

<svg xmlns="http://www.w3.org/2000/svg" width="120" height="132" fill="none"><g fill="currentColor" clip-path="url(#a)"><path d="M46.48 25.54c.32.32 2.24-.3 2.91-.31 9.08-.04 24.63 7.95 31.83 13.46 18.62 13.65 22.15 33.11 23.01 55.04.1.66 1.21 4.38.98 4.65-3.2 1.03-5.86 3.181-8.72 4.881-4.36 2.6-8.53 5.24-12.77 8.01-27.09 17.71-63.2-4.52-58.03-36.91 2.16-13.53 13.06-27.01 27.15-28.85.1.46-.14.29-.34.42-8.99 5.92-16.93 13.5-19.32 24.44-1.11 5.05-1.01 13.29.44 18.26 5.7 19.49 28.86 27.72 45.62 15.98 4.07-2.85 11.05-10.36 12.4-15.14.97-3.44 1.25-7.46 1.57-11.02l-1.4 6.12c-5.67 18.15-30.28 29.73-45.74 15.76-8.96-7.78-13.92-20.92-7.57-31.9 3.73-6.45 10.36-8.08 17.46-7.55 5.23.39 11.42 4.8 10.89 10.56-.05.53-.82 2.85-1.27 2.96-.51.12-.48-1.6-.6-2.1-1.4-5.62-9.78-3.78-11.7.95-3.06 6.89 4.03 10.95 9.93 11.28 3.1-.26 8.47-2.5 10.08-5.29 3.51-6.09 3.7-16.05 1.19-22.53-2.09-5.39-5.76-8.96-11.01-11.29.16-.17.53-.23.76-.25 2.31-.23 5.02.32 7.31.63.18.03.58.19.54-.12-9.98-5.96-20.19-5.46-30.84-1.7-7.09 2.34-12.28 6.15-17.74 11.15-6.42 5.89-11.14 12.91-17.07 19.09-.74.77-1.24 2-2.44 2.37.31-1.41.14-.86-.43-1.51-.53-.6-.65-1.98-.75-2.8-1.59-13.07-.91-25.57 3.8-37.92C10.58 23.94 18.36 12.02 26.89 4.8c.84-.71 6.33-4.9 7.01-4.49 3.47 8.75 8.2 16.9 12.54 25.22z"/><path d="M118.25 10.72c-.35 3.61-2.92 8.38-4.06 12.08-2.13 6.45-3.92 13.01-6.07 19.45-.02.59 1.81 2.91 2.26 3.63 5.7 9.25 9.92 22.79 8.53 33.67-.44 3.44-1.48 6.79-1.84 10.24-.66.17-.08-.63-.5-.67-.46.96-.69 2.05-1.14 3.01-.11.24.1.46-.38.37-.23-3.48.54-6.91.34-10.39-.65-11.09-8.96-23.58-15.88-31.93-4.18-5.04-9.02-10.17-14.64-13.57s-11.38-5.89-17.38-8.64c-.17-.08-.4-.11-.41-.34 2.48-1.07 5.18-1.52 7.74-2.32 7.49-2.34 14.37-6.81 21.79-9.64 6.94-2.65 14.3-4.1 21.67-4.94zM76.34 120.701c.08.48-.1.28-.39.36-8.9 2.42-17.34 5.27-24.78 10.79-.88-2.15-2.43-3.73-4.06-5.32-13.59-14.17-27.85-23.31-46.98-28.38l-.14-.48c8.92-14.16 17.02-29.66 29.54-41-8.18 14.9-11.76 33.56-.41 47.97 7.05 9.04 25.08 15.91 36.3 16.41 3.66.16 7.26-.36 10.9-.35z"/></g><defs><clipPath id="a"><path fill="#fff" d="M0 .29h119.17v131.56H0z"/></clipPath></defs></svg>
